logos/tv.2be.svg

<?xml version="1.0" encoding="UTF-8" standalone="no"?>
<!-- Created with Inkscape (http://www.inkscape.org/) -->

<svg
   xmlns:dc="http://purl.org/dc/elements/1.1/"
   xmlns:cc="http://creativecommons.org/ns#"
   xmlns:rdf="http://www.w3.org/1999/02/22-rdf-syntax-ns#"
   xmlns:svg="http://www.w3.org/2000/svg"
   xmlns="http://www.w3.org/2000/svg"
   xmlns:inkscape="http://www.inkscape.org/namespaces/inkscape"
   version="1.0"
   width="148"
   height="157"
   id="svg2">
  <metadata
     id="metadata29">
    <rdf:RDF>
      <cc:Work
         rdf:about="">
        <dc:format>image/svg+xml</dc:format>
        <dc:type
           rdf:resource="http://purl.org/dc/dcmitype/StillImage" />
      </cc:Work>
    </rdf:RDF>
  </metadata>
  <defs
     id="defs27" />
  <g
     transform="translate(-228.28762,-474.8721)"
     id="layer1">
    <g
       transform="matrix(0,-12.081633,-12.081633,0,6603.595,4579.7102)"
       id="g20696">
      <g
         transform="translate(337.0104,527.6852)"
         id="g20698">
        <path
           d="m 0,0 c 0,0 -1.162,-6.47 -0.186,-7.645 0.163,-0.196 0.382,-0.302 0.585,-0.284 0.235,0.021 0.448,0.196 0.631,0.52 0.565,1 0.156,2.197 0.075,2.407 0.066,0.127 0.446,0.849 0.583,1.11 0.23,-0.552 0.923,-2.482 -0.02,-4.64 L 2.748,-6.124 0,0 z"
           inkscape:connector-curvature="0"
           id="path20700"
           style="fill:#e21f26;fill-rule:nonzero;stroke:none" />
      </g>
      <g
         transform="translate(338.6721,519.1401)"
         id="g20702">
        <path
           d="M 0,0 C -0.345,-0.783 -0.897,-1.239 -1.432,-1.287 -1.865,-1.326 -2.274,-1.081 -2.613,-0.579 -3.476,0.696 -3.357,2.663 -3.355,2.682 -3.354,2.706 -3.368,2.727 -3.39,2.734 -3.413,2.741 -3.437,2.732 -3.449,2.712 L -4.69,0.687 -1.662,-3.704 c 0,0 1.651,3.678 1.662,3.704"
           inkscape:connector-curvature="0"
           id="path20704"
           style="fill:#e21f26;fill-rule:nonzero;stroke:none" />
      </g>
      <g
         transform="translate(331.0887,526.4756)"
         id="g20706">
        <path
           d="m 0,0 -2.87,-3.262 c -0.082,-0.094 -0.841,-0.903 -0.624,-1.38 0.092,-0.204 0.338,-0.308 0.73,-0.308 0.755,0 1.827,0.627 2.02,0.745 0.079,-0.054 0.307,-0.184 0.696,-0.184 0.445,0 2.505,0.386 3.717,2.173 0,0 2.253,3.426 2.253,3.426 L 0,0 z"
           inkscape:connector-curvature="0"
           id="path20708"
           style="fill:#e21f26;fill-rule:nonzero;stroke:none" />
      </g>
      <g
         transform="translate(332.6167,519.7732)"
         id="g20710">
        <path
           d="m 0,0 -1.313,0.122 c 0,0 2.318,-3.026 2.466,-3.219 -0.201,0.035 -1.042,0.179 -1.075,0.185 -0.024,0.03 -2.476,3.091 -2.476,3.091 L -3.515,0.286 -0.424,-3.353 2.901,-4.032 0,0 z"
           inkscape:connector-curvature="0"
           id="path20712"
           style="fill:#e21f26;fill-rule:nonzero;stroke:none" />
      </g>
      <g
         transform="translate(326.7637,521.5609)"
         id="g20714">
        <path
           d="m 0,0 0,0 0,0 0,0 0,0 4.325,-4.915 1.104,-0.226 -2.973,3.577 0.973,-0.093 2.474,-3.089 1.222,-0.211 -2.474,3.23 1.175,-0.109 2.926,-3.984 1.495,-0.305 -2.969,4.396 1.225,1.994 c 0,0 -0.132,-1.989 0.75,-3.294 0.829,-1.225 2.019,-0.845 2.66,0.617 C 12.969,0 12.055,2.095 11.94,2.35 11.922,2.318 11.296,1.127 11.296,1.127 c 0,0 0.543,-1.313 -0.064,-2.387 -0.422,-0.746 -0.906,-0.5 -1.132,-0.228 -0.975,1.173 0.147,7.613 0.147,7.613 L 7.952,2.727 C 6.77,0.984 4.744,0.576 4.277,0.576 c -0.467,0 -0.693,0.195 -0.693,0.195 0,0 -1.213,-0.755 -2.023,-0.755 -1.556,0 -0.106,1.637 -0.106,1.637 L 0,0 z"
           inkscape:connector-curvature="0"
           id="path20716"
           style="fill:#531d0b;fill-rule:nonzero;stroke:none" />
      </g>
      <g
         transform="translate(333.2275,524.2847)"
         id="g20718">
        <path
           d="M 0,0 C 0.56,0.778 1.323,1.829 1.323,1.829 L 0.14,1.634 c 0,0 -0.996,-1.292 -1.401,-1.852 C -1.665,-0.779 -0.561,-0.778 0,0"
           inkscape:connector-curvature="0"
           id="path20720"
           style="fill:#000000;fill-rule:nonzero;stroke:none" />
      </g>
      <g
         transform="translate(330.4961,523.5066)"
         id="g20722">
        <path
           d="M 0,0 C 0.324,0.366 0.297,0.341 1.728,2.233 L 0.731,2.054 c 0,0 -1.482,-1.718 -1.875,-2.21 C -1.518,-0.623 -0.578,-0.652 0,0"
           inkscape:connector-curvature="0"
           id="path20724"
           style="fill:#000000;fill-rule:nonzero;stroke:none" />
      </g>
      <g
         transform="translate(338.6762,519.1489)"
         id="g20726">
        <path
           d="M 0,0 C 0.001,0.002 0.001,0.003 0.002,0.005 L -0.004,-0.009 C -0.003,-0.006 -0.001,-0.003 0,0"
           inkscape:connector-curvature="0"
           id="path20728"
           style="fill:#000000;fill-rule:nonzero;stroke:none" />
      </g>
      <g
         transform="translate(333.2275,524.2847)"
         id="g20730">
        <path
           d="M 0,0 C 0.56,0.778 1.323,1.829 1.323,1.829 L 0.14,1.634 c 0,0 -0.996,-1.292 -1.401,-1.852 C -1.665,-0.779 -0.561,-0.778 0,0"
           inkscape:connector-curvature="0"
           id="path20732"
           style="fill:#531d0b;fill-rule:nonzero;stroke:none" />
      </g>
      <g
         transform="translate(330.4961,523.5066)"
         id="g20734">
        <path
           d="M 0,0 C 0.324,0.366 0.297,0.341 1.728,2.233 L 0.731,2.054 c 0,0 -1.482,-1.718 -1.875,-2.21 C -1.518,-0.623 -0.578,-0.652 0,0"
           inkscape:connector-curvature="0"
           id="path20736"
           style="fill:#531d0b;fill-rule:nonzero;stroke:none" />
      </g>
    </g>
  </g>
</svg>

<?xml version="1.0" encoding="UTF-8" standalone="no"?>
<!-- Created with Inkscape (http://www.inkscape.org/) -->
<svg
   xmlns:dc="http://purl.org/dc/elements/1.1/"
   xmlns:cc="http://web.resource.org/cc/"
   xmlns:rdf="http://www.w3.org/1999/02/22-rdf-syntax-ns#"
   xmlns:svg="http://www.w3.org/2000/svg"
   xmlns="http://www.w3.org/2000/svg"
   xmlns:sodipodi="http://sodipodi.sourceforge.net/DTD/sodipodi-0.dtd"
   xmlns:inkscape="http://www.inkscape.org/namespaces/inkscape"
   width="148"
   height="157"
   id="svg2"
   sodipodi:version="0.32"
   inkscape:version="0.45.1"
   version="1.0"
   inkscape:output_extension="org.inkscape.output.svg.inkscape">
  <g
     inkscape:label="Layer 1"
     inkscape:groupmode="layer"
     id="layer1"
     transform="translate(-228.28762,-474.8721)">
    <g
       id="g20696"
       clip-path="url(#id634)"
       transform="matrix(0,-12.081633,-12.081633,0,6603.595,4579.7102)">
      <g
         id="g20698"
         transform="translate(337.0104,527.6852)">
        <path
           id="path20700"
           d="M 0,0 C 0,0 -1.162,-6.47 -0.186,-7.645 C -0.023,-7.841 0.196,-7.947 0.399,-7.929 C 0.634,-7.908 0.847,-7.733 1.03,-7.409 C 1.595,-6.409 1.186,-5.212 1.105,-5.002 C 1.171,-4.875 1.551,-4.153 1.688,-3.892 C 1.918,-4.444 2.611,-6.374 1.668,-8.532 L 2.748,-6.124 L 0,0 z "
           style="fill:#e21f26;fill-rule:nonzero;stroke:none" />
      </g>
      <g
         id="g20702"
         transform="translate(338.6721,519.1401)">
        <path
           id="path20704"
           d="M 0,0 C -0.345,-0.783 -0.897,-1.239 -1.432,-1.287 C -1.865,-1.326 -2.274,-1.081 -2.613,-0.579 C -3.476,0.696 -3.357,2.663 -3.355,2.682 C -3.354,2.706 -3.368,2.727 -3.39,2.734 C -3.413,2.741 -3.437,2.732 -3.449,2.712 L -4.69,0.687 L -1.662,-3.704 C -1.662,-3.704 -0.011,-0.026 0,0"
           style="fill:#e21f26;fill-rule:nonzero;stroke:none" />
      </g>
      <g
         id="g20706"
         transform="translate(331.0887,526.4756)">
        <path
           id="path20708"
           d="M 0,0 L -2.87,-3.262 C -2.952,-3.356 -3.711,-4.165 -3.494,-4.642 C -3.402,-4.846 -3.156,-4.95 -2.764,-4.95 C -2.009,-4.95 -0.937,-4.323 -0.744,-4.205 C -0.665,-4.259 -0.437,-4.389 -0.048,-4.389 C 0.397,-4.389 2.457,-4.003 3.669,-2.216 C 3.669,-2.216 5.922,1.21 5.922,1.21 L 0,0 z "
           style="fill:#e21f26;fill-rule:nonzero;stroke:none" />
      </g>
      <g
         id="g20710"
         transform="translate(332.6167,519.7732)">
        <path
           id="path20712"
           d="M 0,0 L -1.313,0.122 C -1.313,0.122 1.005,-2.904 1.153,-3.097 C 0.952,-3.062 0.111,-2.918 0.078,-2.912 C 0.054,-2.882 -2.398,0.179 -2.398,0.179 L -3.515,0.286 L -0.424,-3.353 L 2.901,-4.032 L 0,0 z "
           style="fill:#e21f26;fill-rule:nonzero;stroke:none" />
      </g>
      <g
         id="g20714"
         transform="translate(326.7637,521.5609)">
        <path
           id="path20716"
           d="M 0,0 L 0,0 L 0,0 L 0,0 L 0,0 L 4.325,-4.915 L 5.429,-5.141 L 2.456,-1.564 L 3.429,-1.657 L 5.903,-4.746 L 7.125,-4.957 L 4.651,-1.727 L 5.826,-1.836 L 8.752,-5.82 L 10.247,-6.125 L 7.278,-1.729 L 8.503,0.265 C 8.503,0.265 8.371,-1.724 9.253,-3.029 C 10.082,-4.254 11.272,-3.874 11.913,-2.412 C 12.969,0 12.055,2.095 11.94,2.35 C 11.922,2.318 11.296,1.127 11.296,1.127 C 11.296,1.127 11.839,-0.186 11.232,-1.26 C 10.81,-2.006 10.326,-1.76 10.1,-1.488 C 9.125,-0.315 10.247,6.125 10.247,6.125 L 7.952,2.727 C 6.77,0.984 4.744,0.576 4.277,0.576 C 3.81,0.576 3.584,0.771 3.584,0.771 C 3.584,0.771 2.371,0.016 1.561,0.016 C 0.005,0.016 1.455,1.653 1.455,1.653 L 0,0 z "
           style="fill:#531d0b;fill-rule:nonzero;stroke:none" />
      </g>
      <g
         id="g20718"
         transform="translate(333.2275,524.2847)">
        <path
           id="path20720"
           d="M 0,0 C 0.56,0.778 1.323,1.829 1.323,1.829 L 0.14,1.634 C 0.14,1.634 -0.856,0.342 -1.261,-0.218 C -1.665,-0.779 -0.561,-0.778 0,0"
           style="fill:#000000;fill-rule:nonzero;stroke:none" />
      </g>
      <g
         id="g20722"
         transform="translate(330.4961,523.5066)">
        <path
           id="path20724"
           d="M 0,0 C 0.324,0.366 0.297,0.341 1.728,2.233 L 0.731,2.054 C 0.731,2.054 -0.751,0.336 -1.144,-0.156 C -1.518,-0.623 -0.578,-0.652 0,0"
           style="fill:#000000;fill-rule:nonzero;stroke:none" />
      </g>
      <g
         id="g20726"
         transform="translate(338.6762,519.1489)">
        <path
           id="path20728"
           d="M 0,0 C 0.001,0.002 0.001,0.003 0.002,0.005 L -0.004,-0.009 C -0.003,-0.006 -0.001,-0.003 0,0"
           style="fill:#000000;fill-rule:nonzero;stroke:none" />
      </g>
      <g
         id="g20730"
         transform="translate(333.2275,524.2847)">
        <path
           id="path20732"
           d="M 0,0 C 0.56,0.778 1.323,1.829 1.323,1.829 L 0.14,1.634 C 0.14,1.634 -0.856,0.342 -1.261,-0.218 C -1.665,-0.779 -0.561,-0.778 0,0"
           style="fill:#531d0b;fill-rule:nonzero;stroke:none" />
      </g>
      <g
         id="g20734"
         transform="translate(330.4961,523.5066)">
        <path
           id="path20736"
           d="M 0,0 C 0.324,0.366 0.297,0.341 1.728,2.233 L 0.731,2.054 C 0.731,2.054 -0.751,0.336 -1.144,-0.156 C -1.518,-0.623 -0.578,-0.652 0,0"
           style="fill:#531d0b;fill-rule:nonzero;stroke:none" />
      </g>
    </g>
  </g>
</svg>
